X: 136
T:Old Man Winter
M:6/8
L:1/8
F:http://blackrosetheband.googlepages.com/ABCTUNES.ABC May 2009
C:Pete Sutherland
S:Metamora
R:Jig
K:Am
E|:"Am"ABc BGE|FED E3|A3 GAB|cde de^f| "Em"g2 e e2 d|e3 edB|"F"ABc dBG|1 A3 A2 E:|2 "Em"A3 Ace|
|:"Am"azA BAB|cBc A2 g|"D"^fdd d2^c|d3 de^f| "Am"gzABAB|GAB e2d|"D"cAA A2G|1 "G"A3 Ace:|2 "Em"A3 A2E||

